X:1
T:Title
%%score { ( 1 3 ) | ( 2 4 ) }
L:1/8
Q:1/4=100
M:4/4
K:Bb
V:1 treble nm="Grand Piano"
V:3 treble 
V:2 bass 
V:4 bass 
V:1
 [DF]3- [DF]/[CG]/ [DF]>[DF] [DF]>[DB] | [Fd]3- [Fd]/[Ge]/ [Fd]4 | %2
w: A.~M.~Wortman * * * * * *||
 [=Ed]3- [Ed]/[Ec]/ [EG]>[EB] [EA]>[EG] | F8[K:bass] | %4
w: ||
 [B,DF]3- [B,DF]/[_DG]/ [=DF]>[DF] [DF]>[DB] | [Fd]3- [Fd]/[Ge]/ [Fd]4 | c3- c/d/ e>c G>A | %7
w: |||
 B->[DB-] [EB-]>[EB-] [DB]4 | D3- D/D/ D>D D>[CE] | [DF]2 [_DG]2 [=DF]4 | %10
w: |||
 [DB]3- [DB]/[DB]/ [DB]>[DB] [DB]>[Ec] | [Fd]2 [Ge]2 [Fd]4 | %12
w: ||
 [^Fd]3- [Fd]/[Fc]/ [GB]>[Gc] [GB]>[EG] | [DF]2 [EG]2 [FB]4 | c3- c/d/ e>c G>A | %15
w: |||
 B->[DB-] [EB-]>[EB-] [DB]4 |] %16
w: |
V:2
 [B,,B,]3- [B,,B,]/[B,,=E,]/ [B,,F,]>[B,,F,] [B,,F,]>[B,,F,] | %1
 [B,,B,]3- [B,,B,]/[B,,B,]/ [B,,B,]4 | [C,G,]3- [C,G,]/[C,G,]/ [C,G,]>[C,G,] [C,C]>[C,B,] | %3
 [F,A,]3- [F,A,]/G,/ F,>E, D,>C, | B,,3- B,,/[B,,=E,]/ [B,,F,]>[B,,F,] [B,,F,]>[B,,F,] | %5
 [B,,B,]3- [B,,B,]/[B,,B,]/ [B,,B,]4 | [F,A,F]3- [F,A,F]/[F,B,F]/ [F,CF]>[F,A,F] [F,A,E]>[F,CE] | %7
 z z/ F,/ G,>G, F,4 | [B,,F,B,]3- [B,,F,B,]/[B,,F,B,]/ [B,,F,B,]>[B,,F,B,] [B,,F,B,]>[B,,F,] | %9
 [B,,F,]2 [B,,=E,]2 [B,,F,]4 | [B,,F,]3- [B,,F,]/[B,,F,]/ [B,,F,]>[B,,F,] [B,,F,]>[B,,F,] | %11
 [B,,B,]2 [B,,B,]2 [B,,B,]4 | [D,A,]3- [D,A,]/[D,A,]/ [E,G,]>[E,G,] [E,B,]>[E,B,] | %13
 [B,,B,]2 [E,B,]2 [D,B,]4 | [F,A,F]3- [F,A,F]/[F,B,F]/ [F,CF]>[F,A,F] [F,A,E]>[F,CE] | %15
 z z/ F,/ G,>G, F,4 |] %16
V:3
 x8 | x8 | x8 | z2 z z/[K:bass] A,/ A,>A, B,>A, | x8 | x8 | x8 | [B,D]2 z2 z4 | x8 | x8 | x8 | x8 | %12
 x8 | x8 | x8 | [B,D]2 z2 z4 |] %16
V:4
 x8 | x8 | x8 | x8 | x8 | x8 | x8 | B,,8 | x8 | x8 | x8 | x8 | x8 | x8 | x8 | B,,8 |] %16

